X:10
T:La Montarde
C:Thoinot Arbeau - 1596
B:L'Orchesographie
M:C
L:1/8
K:F
de fd ge fd | dd dd cB AG |\
de fd ge fd | cd/c/ BA/G/ GA/F/ G2 :|
|: ga/g/ fe fd c2 | ga/g/ fe fd c2 :|
de fd ge fd | dd dd cB AG |\
de fd ge fd | cd/c/ BA/G/ GA/F/ G2 ||
